images/50386280.svg

<?xml version="1.0" encoding="UTF-8"?>
<svg xmlns="http://www.w3.org/2000/svg" xmlns:xlink="http://www.w3.org/1999/xlink" width="300pt" height="300pt" viewBox="0 0 300 300" version="1.1">
<defs>
<g>
<symbol overflow="visible" id="glyph0-0">
<path style="stroke:none;" d="M 0.453125 1.59375 L 0.453125 -6.34375 L 4.953125 -6.34375 L 4.953125 1.59375 Z M 0.953125 1.09375 L 4.453125 1.09375 L 4.453125 -5.84375 L 0.953125 -5.84375 Z M 0.953125 1.09375 "/>
</symbol>
<symbol overflow="visible" id="glyph0-1">
<path style="stroke:none;" d="M 0.890625 -6.5625 L 2.078125 -6.5625 L 4.984375 -1.078125 L 4.984375 -6.5625 L 5.84375 -6.5625 L 5.84375 0 L 4.65625 0 L 1.75 -5.484375 L 1.75 0 L 0.890625 0 Z M 0.890625 -6.5625 "/>
</symbol>
<symbol overflow="visible" id="glyph0-2">
<path style="stroke:none;" d="M 3.546875 -5.953125 C 2.898438 -5.953125 2.382812 -5.710938 2 -5.234375 C 1.625 -4.753906 1.4375 -4.101562 1.4375 -3.28125 C 1.4375 -2.445312 1.625 -1.789062 2 -1.3125 C 2.382812 -0.832031 2.898438 -0.59375 3.546875 -0.59375 C 4.191406 -0.59375 4.703125 -0.832031 5.078125 -1.3125 C 5.453125 -1.789062 5.640625 -2.445312 5.640625 -3.28125 C 5.640625 -4.101562 5.453125 -4.753906 5.078125 -5.234375 C 4.703125 -5.710938 4.191406 -5.953125 3.546875 -5.953125 Z M 3.546875 -6.6875 C 4.460938 -6.6875 5.195312 -6.375 5.75 -5.75 C 6.300781 -5.132812 6.578125 -4.3125 6.578125 -3.28125 C 6.578125 -2.238281 6.300781 -1.410156 5.75 -0.796875 C 5.195312 -0.179688 4.460938 0.125 3.546875 0.125 C 2.617188 0.125 1.878906 -0.179688 1.328125 -0.796875 C 0.773438 -1.410156 0.5 -2.238281 0.5 -3.28125 C 0.5 -4.3125 0.773438 -5.132812 1.328125 -5.75 C 1.878906 -6.375 2.617188 -6.6875 3.546875 -6.6875 Z M 3.546875 -6.6875 "/>
</symbol>
</g>
</defs>
<g id="surface6497">
<rect x="0" y="0" width="300" height="300" style="fill:rgb(100%,100%,100%);fill-opacity:1;stroke:none;"/>
<path style="fill:none;stroke-width:1.2;stroke-linecap:butt;stroke-linejoin:miter;stroke:rgb(0%,0%,0%);stroke-opacity:1;stroke-miterlimit:10;" d="M 250.003906 221.957031 L 229.140625 216.976562 "/>
<path style="fill:none;stroke-width:1.2;stroke-linecap:butt;stroke-linejoin:miter;stroke:rgb(0%,0%,0%);stroke-opacity:1;stroke-miterlimit:10;" d="M 249.089844 216.550781 L 232.398438 212.566406 "/>
<path style="fill:none;stroke-width:1.2;stroke-linecap:butt;stroke-linejoin:miter;stroke:rgb(0%,0%,0%);stroke-opacity:1;stroke-miterlimit:10;" d="M 264.75 206.378906 L 250.003906 221.957031 "/>
<path style="fill:none;stroke-width:1.2;stroke-linecap:butt;stroke-linejoin:miter;stroke:rgb(0%,0%,0%);stroke-opacity:1;stroke-miterlimit:10;" d="M 229.140625 216.976562 L 223.023438 196.417969 "/>
<path style="fill:none;stroke-width:1.2;stroke-linecap:butt;stroke-linejoin:miter;stroke:rgb(0%,0%,0%);stroke-opacity:1;stroke-miterlimit:10;" d="M 223.023438 196.417969 L 237.769531 180.839844 "/>
<path style="fill:none;stroke-width:1.2;stroke-linecap:butt;stroke-linejoin:miter;stroke:rgb(0%,0%,0%);stroke-opacity:1;stroke-miterlimit:10;" d="M 220.832031 191.390625 L 232.628906 178.925781 "/>
<path style="fill:none;stroke-width:1.2;stroke-linecap:butt;stroke-linejoin:miter;stroke:rgb(0%,0%,0%);stroke-opacity:1;stroke-miterlimit:10;" d="M 202.160156 191.433594 L 223.023438 196.417969 "/>
<path style="fill:none;stroke-width:1.2;stroke-linecap:butt;stroke-linejoin:miter;stroke:rgb(0%,0%,0%);stroke-opacity:1;stroke-miterlimit:10;" d="M 237.769531 180.839844 L 231.652344 160.28125 "/>
<path style="fill:none;stroke-width:1.2;stroke-linecap:butt;stroke-linejoin:miter;stroke:rgb(0%,0%,0%);stroke-opacity:1;stroke-miterlimit:10;" d="M 237.769531 180.839844 L 258.632812 185.820312 "/>
<path style="fill:none;stroke-width:1.2;stroke-linecap:butt;stroke-linejoin:miter;stroke:rgb(0%,0%,0%);stroke-opacity:1;stroke-miterlimit:10;" d="M 231.652344 160.28125 L 221.21875 157.789062 "/>
<path style="fill:none;stroke-width:1.2;stroke-linecap:butt;stroke-linejoin:miter;stroke:rgb(0%,0%,100%);stroke-opacity:1;stroke-miterlimit:10;" d="M 221.21875 157.789062 L 210.789062 155.296875 "/>
<path style="fill:none;stroke-width:1.2;stroke-linecap:butt;stroke-linejoin:miter;stroke:rgb(0%,0%,100%);stroke-opacity:1;stroke-miterlimit:10;" d="M 210.789062 155.296875 L 207.730469 145.019531 "/>
<path style="fill:none;stroke-width:1.2;stroke-linecap:butt;stroke-linejoin:miter;stroke:rgb(0%,0%,0%);stroke-opacity:1;stroke-miterlimit:10;" d="M 207.730469 145.019531 L 204.671875 134.738281 "/>
<path style="fill:none;stroke-width:1.2;stroke-linecap:butt;stroke-linejoin:miter;stroke:rgb(0%,0%,100%);stroke-opacity:1;stroke-miterlimit:10;" d="M 210.789062 155.296875 L 203.414062 163.085938 "/>
<path style="fill:none;stroke-width:1.2;stroke-linecap:butt;stroke-linejoin:miter;stroke:rgb(0%,0%,0%);stroke-opacity:1;stroke-miterlimit:10;" d="M 203.414062 163.085938 L 196.042969 170.875 "/>
<path style=" stroke:none;fill-rule:nonzero;fill:rgb(100%,100%,100%);fill-opacity:1;" d="M 207.789062 149.796875 L 214.789062 149.796875 L 214.789062 160.796875 L 207.789062 160.796875 Z M 207.789062 149.796875 "/>
<g style="fill:rgb(0%,0%,100%);fill-opacity:1;">
  <use xlink:href="#glyph0-1" x="207.789062" y="158.459961"/>
</g>
<path style="fill:none;stroke-width:1.2;stroke-linecap:butt;stroke-linejoin:miter;stroke:rgb(0%,0%,0%);stroke-opacity:1;stroke-miterlimit:10;" d="M 205.257812 132.285156 L 194.824219 129.792969 "/>
<path style="fill:none;stroke-width:1.2;stroke-linecap:butt;stroke-linejoin:miter;stroke:rgb(100%,0%,0%);stroke-opacity:1;stroke-miterlimit:10;" d="M 194.824219 129.792969 L 184.394531 127.300781 "/>
<path style="fill:none;stroke-width:1.2;stroke-linecap:butt;stroke-linejoin:miter;stroke:rgb(0%,0%,0%);stroke-opacity:1;stroke-miterlimit:10;" d="M 204.085938 137.191406 L 193.652344 134.703125 "/>
<path style="fill:none;stroke-width:1.2;stroke-linecap:butt;stroke-linejoin:miter;stroke:rgb(100%,0%,0%);stroke-opacity:1;stroke-miterlimit:10;" d="M 193.652344 134.703125 L 183.222656 132.210938 "/>
<path style="fill:none;stroke-width:1.2;stroke-linecap:butt;stroke-linejoin:miter;stroke:rgb(0%,0%,0%);stroke-opacity:1;stroke-miterlimit:10;" d="M 204.671875 134.738281 L 212.042969 126.949219 "/>
<path style="fill:none;stroke-width:1.2;stroke-linecap:butt;stroke-linejoin:miter;stroke:rgb(100%,0%,0%);stroke-opacity:1;stroke-miterlimit:10;" d="M 212.042969 126.949219 L 219.417969 119.160156 "/>
<path style=" stroke:none;fill-rule:nonzero;fill:rgb(100%,100%,100%);fill-opacity:1;" d="M 175.808594 124.257812 L 183.808594 124.257812 L 183.808594 135.257812 L 175.808594 135.257812 Z M 175.808594 124.257812 "/>
<g style="fill:rgb(100%,0%,0%);fill-opacity:1;">
  <use xlink:href="#glyph0-2" x="175.808594" y="132.920898"/>
</g>
<path style="fill:none;stroke-width:1.2;stroke-linecap:butt;stroke-linejoin:miter;stroke:rgb(100%,0%,0%);stroke-opacity:1;stroke-miterlimit:10;" d="M 219.417969 119.160156 L 216.359375 108.882812 "/>
<path style="fill:none;stroke-width:1.2;stroke-linecap:butt;stroke-linejoin:miter;stroke:rgb(0%,0%,0%);stroke-opacity:1;stroke-miterlimit:10;" d="M 216.359375 108.882812 L 213.300781 98.601562 "/>
<path style=" stroke:none;fill-rule:nonzero;fill:rgb(100%,100%,100%);fill-opacity:1;" d="M 215.417969 113.660156 L 223.417969 113.660156 L 223.417969 124.660156 L 215.417969 124.660156 Z M 215.417969 113.660156 "/>
<g style="fill:rgb(100%,0%,0%);fill-opacity:1;">
  <use xlink:href="#glyph0-2" x="215.417969" y="122.323242"/>
</g>
<path style="fill:none;stroke-width:1.2;stroke-linecap:butt;stroke-linejoin:miter;stroke:rgb(0%,0%,0%);stroke-opacity:1;stroke-miterlimit:10;" d="M 213.300781 98.601562 L 233.859375 92.484375 "/>
<path style="fill:none;stroke-width:1.2;stroke-linecap:butt;stroke-linejoin:miter;stroke:rgb(0%,0%,0%);stroke-opacity:1;stroke-miterlimit:10;" d="M 213.300781 98.601562 L 192.742188 104.71875 "/>
<path style="fill:none;stroke-width:1.2;stroke-linecap:butt;stroke-linejoin:miter;stroke:rgb(0%,0%,0%);stroke-opacity:1;stroke-miterlimit:10;" d="M 213.300781 98.601562 L 207.183594 78.042969 "/>
<path style=" stroke:none;fill-rule:nonzero;fill:rgb(0%,0%,0%);fill-opacity:1;" d="M 196.042969 170.875 L 176.058594 162.210938 L 174.300781 169.574219 Z M 196.042969 170.875 "/>
<path style="fill:none;stroke-width:1.2;stroke-linecap:butt;stroke-linejoin:miter;stroke:rgb(0%,0%,0%);stroke-opacity:1;stroke-miterlimit:10;" d="M 196.042969 170.875 L 202.160156 191.433594 "/>
<path style="fill:none;stroke-width:1.2;stroke-linecap:butt;stroke-linejoin:miter;stroke:rgb(0%,0%,0%);stroke-opacity:1;stroke-miterlimit:10;" d="M 175.179688 165.894531 L 167.804688 173.683594 "/>
<path style="fill:none;stroke-width:1.2;stroke-linecap:butt;stroke-linejoin:miter;stroke:rgb(0%,0%,100%);stroke-opacity:1;stroke-miterlimit:10;" d="M 167.804688 173.683594 L 160.433594 181.472656 "/>
<path style="fill:none;stroke-width:1.2;stroke-linecap:butt;stroke-linejoin:miter;stroke:rgb(0%,0%,0%);stroke-opacity:1;stroke-miterlimit:10;" d="M 177.597656 165.171875 L 174.539062 154.894531 "/>
<path style="fill:none;stroke-width:1.2;stroke-linecap:butt;stroke-linejoin:miter;stroke:rgb(100%,0%,0%);stroke-opacity:1;stroke-miterlimit:10;" d="M 174.539062 154.894531 L 171.480469 144.613281 "/>
<path style="fill:none;stroke-width:1.2;stroke-linecap:butt;stroke-linejoin:miter;stroke:rgb(0%,0%,0%);stroke-opacity:1;stroke-miterlimit:10;" d="M 172.757812 166.613281 L 169.699219 156.332031 "/>
<path style="fill:none;stroke-width:1.2;stroke-linecap:butt;stroke-linejoin:miter;stroke:rgb(100%,0%,0%);stroke-opacity:1;stroke-miterlimit:10;" d="M 169.699219 156.332031 L 166.640625 146.054688 "/>
<path style="fill:none;stroke-width:1.2;stroke-linecap:butt;stroke-linejoin:miter;stroke:rgb(0%,0%,100%);stroke-opacity:1;stroke-miterlimit:10;" d="M 160.433594 181.472656 L 163.492188 191.75 "/>
<path style="fill:none;stroke-width:1.2;stroke-linecap:butt;stroke-linejoin:miter;stroke:rgb(0%,0%,0%);stroke-opacity:1;stroke-miterlimit:10;" d="M 163.492188 191.75 L 166.550781 202.03125 "/>
<path style="fill:none;stroke-width:1.2;stroke-linecap:butt;stroke-linejoin:miter;stroke:rgb(0%,0%,100%);stroke-opacity:1;stroke-miterlimit:10;" d="M 160.433594 181.472656 L 150 178.980469 "/>
<path style="fill:none;stroke-width:1.2;stroke-linecap:butt;stroke-linejoin:miter;stroke:rgb(0%,0%,0%);stroke-opacity:1;stroke-miterlimit:10;" d="M 150 178.980469 L 139.566406 176.488281 "/>
<path style=" stroke:none;fill-rule:nonzero;fill:rgb(100%,100%,100%);fill-opacity:1;" d="M 157.433594 175.972656 L 164.433594 175.972656 L 164.433594 186.972656 L 157.433594 186.972656 Z M 157.433594 175.972656 "/>
<g style="fill:rgb(0%,0%,100%);fill-opacity:1;">
  <use xlink:href="#glyph0-1" x="157.433594" y="184.635742"/>
</g>
<path style="fill:none;stroke-width:1.2;stroke-linecap:butt;stroke-linejoin:miter;stroke:rgb(0%,0%,0%);stroke-opacity:1;stroke-miterlimit:10;" d="M 139.566406 176.488281 L 133.449219 155.929688 "/>
<path style="fill:none;stroke-width:1.2;stroke-linecap:butt;stroke-linejoin:miter;stroke:rgb(0%,0%,0%);stroke-opacity:1;stroke-miterlimit:10;" d="M 134.117188 175.871094 L 129.226562 159.425781 "/>
<path style="fill:none;stroke-width:1.2;stroke-linecap:butt;stroke-linejoin:miter;stroke:rgb(0%,0%,0%);stroke-opacity:1;stroke-miterlimit:10;" d="M 124.820312 192.066406 L 139.566406 176.488281 "/>
<path style="fill:none;stroke-width:1.2;stroke-linecap:butt;stroke-linejoin:miter;stroke:rgb(0%,0%,0%);stroke-opacity:1;stroke-miterlimit:10;" d="M 133.449219 155.929688 L 112.585938 150.949219 "/>
<path style="fill:none;stroke-width:1.2;stroke-linecap:butt;stroke-linejoin:miter;stroke:rgb(0%,0%,0%);stroke-opacity:1;stroke-miterlimit:10;" d="M 112.585938 150.949219 L 97.839844 166.523438 "/>
<path style="fill:none;stroke-width:1.2;stroke-linecap:butt;stroke-linejoin:miter;stroke:rgb(0%,0%,0%);stroke-opacity:1;stroke-miterlimit:10;" d="M 114.777344 155.976562 L 102.980469 168.4375 "/>
<path style="fill:none;stroke-width:1.2;stroke-linecap:butt;stroke-linejoin:miter;stroke:rgb(0%,0%,0%);stroke-opacity:1;stroke-miterlimit:10;" d="M 97.839844 166.523438 L 87.410156 164.035156 "/>
<path style="fill:none;stroke-width:1.2;stroke-linecap:butt;stroke-linejoin:miter;stroke:rgb(0%,0%,100%);stroke-opacity:1;stroke-miterlimit:10;" d="M 87.410156 164.035156 L 76.976562 161.542969 "/>
<path style="fill:none;stroke-width:1.2;stroke-linecap:butt;stroke-linejoin:miter;stroke:rgb(0%,0%,0%);stroke-opacity:1;stroke-miterlimit:10;" d="M 97.839844 166.523438 L 103.957031 187.085938 "/>
<path style="fill:none;stroke-width:1.2;stroke-linecap:butt;stroke-linejoin:miter;stroke:rgb(0%,0%,100%);stroke-opacity:1;stroke-miterlimit:10;" d="M 76.976562 161.542969 L 73.917969 151.261719 "/>
<path style="fill:none;stroke-width:1.2;stroke-linecap:butt;stroke-linejoin:miter;stroke:rgb(0%,0%,0%);stroke-opacity:1;stroke-miterlimit:10;" d="M 73.917969 151.261719 L 70.859375 140.984375 "/>
<path style="fill:none;stroke-width:1.2;stroke-linecap:butt;stroke-linejoin:miter;stroke:rgb(0%,0%,0%);stroke-opacity:1;stroke-miterlimit:10;" d="M 62.230469 177.121094 L 69.605469 169.332031 "/>
<path style="fill:none;stroke-width:1.2;stroke-linecap:butt;stroke-linejoin:miter;stroke:rgb(0%,0%,100%);stroke-opacity:1;stroke-miterlimit:10;" d="M 69.605469 169.332031 L 76.976562 161.542969 "/>
<path style=" stroke:none;fill-rule:nonzero;fill:rgb(100%,100%,100%);fill-opacity:1;" d="M 73.976562 156.042969 L 80.976562 156.042969 L 80.976562 167.042969 L 73.976562 167.042969 Z M 73.976562 156.042969 "/>
<g style="fill:rgb(0%,0%,100%);fill-opacity:1;">
  <use xlink:href="#glyph0-1" x="73.976562" y="164.706055"/>
</g>
<path style="fill:none;stroke-width:1.2;stroke-linecap:butt;stroke-linejoin:miter;stroke:rgb(0%,0%,0%);stroke-opacity:1;stroke-miterlimit:10;" d="M 70.859375 140.984375 L 49.996094 136 "/>
<path style="fill:none;stroke-width:1.2;stroke-linecap:butt;stroke-linejoin:miter;stroke:rgb(0%,0%,0%);stroke-opacity:1;stroke-miterlimit:10;" d="M 49.996094 136 L 35.25 151.578125 "/>
<path style="fill:none;stroke-width:1.2;stroke-linecap:butt;stroke-linejoin:miter;stroke:rgb(0%,0%,0%);stroke-opacity:1;stroke-miterlimit:10;" d="M 35.25 151.578125 L 41.367188 172.136719 "/>
<path style="fill:none;stroke-width:1.2;stroke-linecap:butt;stroke-linejoin:miter;stroke:rgb(0%,0%,0%);stroke-opacity:1;stroke-miterlimit:10;" d="M 41.367188 172.136719 L 62.230469 177.121094 "/>
<path style="fill:none;stroke-width:1.2;stroke-linecap:butt;stroke-linejoin:miter;stroke:rgb(0%,0%,0%);stroke-opacity:1;stroke-miterlimit:10;" d="M 59.8125 177.839844 L 62.871094 188.121094 "/>
<path style="fill:none;stroke-width:1.2;stroke-linecap:butt;stroke-linejoin:miter;stroke:rgb(100%,0%,0%);stroke-opacity:1;stroke-miterlimit:10;" d="M 62.871094 188.121094 L 65.929688 198.398438 "/>
<path style="fill:none;stroke-width:1.2;stroke-linecap:butt;stroke-linejoin:miter;stroke:rgb(0%,0%,0%);stroke-opacity:1;stroke-miterlimit:10;" d="M 64.648438 176.402344 L 67.707031 186.679688 "/>
<path style="fill:none;stroke-width:1.2;stroke-linecap:butt;stroke-linejoin:miter;stroke:rgb(100%,0%,0%);stroke-opacity:1;stroke-miterlimit:10;" d="M 67.707031 186.679688 L 70.765625 196.960938 "/>
<path style=" stroke:none;fill-rule:nonzero;fill:rgb(100%,100%,100%);fill-opacity:1;" d="M 64.347656 192.179688 L 72.347656 192.179688 L 72.347656 203.179688 L 64.347656 203.179688 Z M 64.347656 192.179688 "/>
<g style="fill:rgb(100%,0%,0%);fill-opacity:1;">
  <use xlink:href="#glyph0-2" x="64.347656" y="200.842773"/>
</g>
<path style="fill:none;stroke-width:1.2;stroke-linecap:butt;stroke-linejoin:miter;stroke:rgb(0%,0%,0%);stroke-opacity:1;stroke-miterlimit:10;" d="M 103.957031 187.085938 L 124.820312 192.066406 "/>
<path style="fill:none;stroke-width:1.2;stroke-linecap:butt;stroke-linejoin:miter;stroke:rgb(0%,0%,0%);stroke-opacity:1;stroke-miterlimit:10;" d="M 107.21875 182.671875 L 123.90625 186.660156 "/>
<path style=" stroke:none;fill-rule:nonzero;fill:rgb(100%,100%,100%);fill-opacity:1;" d="M 165.0625 139.832031 L 173.0625 139.832031 L 173.0625 150.832031 L 165.0625 150.832031 Z M 165.0625 139.832031 "/>
<g style="fill:rgb(100%,0%,0%);fill-opacity:1;">
  <use xlink:href="#glyph0-2" x="165.0625" y="148.495117"/>
</g>
<path style="fill:none;stroke-width:1.2;stroke-linecap:butt;stroke-linejoin:miter;stroke:rgb(0%,0%,0%);stroke-opacity:1;stroke-miterlimit:10;" d="M 258.632812 185.820312 L 264.75 206.378906 "/>
<path style="fill:none;stroke-width:1.2;stroke-linecap:butt;stroke-linejoin:miter;stroke:rgb(0%,0%,0%);stroke-opacity:1;stroke-miterlimit:10;" d="M 254.40625 189.316406 L 259.300781 205.765625 "/>
</g>
</svg>

<svg xmlns="http://www.w3.org/2000/svg" xmlns:xlink="http://www.w3.org/1999/xlink" width="300pt" height="300pt" viewBox="0 0 300 300"><defs><symbol overflow="visible"><path d="M.453 1.594v-7.938h4.5v7.938zm.5-.5h3.5v-6.938h-3.5zm0 0"/></symbol><symbol overflow="visible" id="a"><path d="M.89-6.563H2.08l2.906 5.485v-5.484h.86V0H4.656L1.75-5.484V0H.89zm0 0"/></symbol><symbol overflow="visible" id="b"><path d="M3.547-5.953c-.65 0-1.164.242-1.547.72-.375.48-.563 1.13-.563 1.952 0 .835.188 1.49.563 1.967.383.48.898.72 1.547.72.644 0 1.156-.24 1.53-.72.376-.476.564-1.132.564-1.968 0-.822-.187-1.474-.562-1.954-.375-.477-.887-.72-1.53-.72zm0-.734c.914 0 1.648.312 2.203.937.55.617.828 1.438.828 2.47 0 1.042-.277 1.87-.828 2.483-.555.617-1.29.922-2.203.922-.93 0-1.668-.305-2.22-.922C.774-1.41.5-2.237.5-3.28c0-1.033.273-1.853.828-2.47.55-.625 1.29-.938 2.22-.938zm0 0"/></symbol></defs><g><path fill="#fff" d="M0 0h300v300H0z"/><path d="M250.004 221.957l-20.863-4.98M249.09 216.55l-16.692-3.984M264.75 206.38l-14.746 15.577M229.14 216.977l-6.117-20.56M223.023 196.418l14.747-15.578M220.832 191.39l11.797-12.464M202.16 191.434l20.863 4.984M237.77 180.84l-6.118-20.56M237.77 180.84l20.863 4.98M231.652 160.28l-10.433-2.49" stroke-width="1.2" stroke="#000" stroke-miterlimit="10" fill="none"/><path d="M221.22 157.79l-10.43-2.493M210.79 155.297l-3.06-10.277" stroke-width="1.2" stroke="#00f" stroke-miterlimit="10" fill="none"/><path d="M207.73 145.02l-3.058-10.282" stroke-width="1.2" stroke="#000" stroke-miterlimit="10" fill="none"/><path d="M210.79 155.297l-7.376 7.79" stroke-width="1.2" stroke="#00f" stroke-miterlimit="10" fill="none"/><path d="M203.414 163.086l-7.37 7.79" stroke-width="1.2" stroke="#000" stroke-miterlimit="10" fill="none"/><path d="M207.79 149.797h7v11h-7zm0 0" fill="#fff"/><use xlink:href="#a" x="207.789" y="158.46" fill="#00f"/><path d="M205.258 132.285l-10.434-2.492" stroke-width="1.2" stroke="#000" stroke-miterlimit="10" fill="none"/><path d="M194.824 129.793l-10.43-2.492" stroke-width="1.2" stroke="#f00" stroke-miterlimit="10" fill="none"/><path d="M204.086 137.19l-10.434-2.487" stroke-width="1.2" stroke="#000" stroke-miterlimit="10" fill="none"/><path d="M193.652 134.703l-10.43-2.492" stroke-width="1.2" stroke="#f00" stroke-miterlimit="10" fill="none"/><path d="M204.672 134.738l7.37-7.79" stroke-width="1.2" stroke="#000" stroke-miterlimit="10" fill="none"/><path d="M212.043 126.95l7.375-7.79" stroke-width="1.2" stroke="#f00" stroke-miterlimit="10" fill="none"/><path d="M175.81 124.258h8v11h-8zm0 0" fill="#fff"/><use xlink:href="#b" x="175.809" y="132.921" fill="#f00"/><path d="M219.418 119.16l-3.06-10.277" stroke-width="1.2" stroke="#f00" stroke-miterlimit="10" fill="none"/><path d="M216.36 108.883l-3.06-10.28" stroke-width="1.2" stroke="#000" stroke-miterlimit="10" fill="none"/><path d="M215.418 113.66h8v11h-8zm0 0" fill="#fff"/><use xlink:href="#b" x="215.418" y="122.323" fill="#f00"/><path d="M213.3 98.602l20.56-6.118M213.3 98.602l-20.558 6.117M213.3 98.602l-6.116-20.56" stroke-width="1.2" stroke="#000" stroke-miterlimit="10" fill="none"/><path d="M196.043 170.875l-19.984-8.664-1.76 7.364zm0 0"/><path d="M196.043 170.875l6.117 20.56M175.18 165.895l-7.375 7.79" stroke-width="1.2" stroke="#000" stroke-miterlimit="10" fill="none"/><path d="M167.805 173.684l-7.37 7.79" stroke-width="1.2" stroke="#00f" stroke-miterlimit="10" fill="none"/><path d="M177.598 165.172l-3.06-10.277" stroke-width="1.2" stroke="#000" stroke-miterlimit="10" fill="none"/><path d="M174.54 154.895l-3.06-10.282" stroke-width="1.2" stroke="#f00" stroke-miterlimit="10" fill="none"/><path d="M172.758 166.613l-3.06-10.28" stroke-width="1.2" stroke="#000" stroke-miterlimit="10" fill="none"/><path d="M169.7 156.332l-3.06-10.277" stroke-width="1.2" stroke="#f00" stroke-miterlimit="10" fill="none"/><path d="M160.434 181.473l3.058 10.277" stroke-width="1.2" stroke="#00f" stroke-miterlimit="10" fill="none"/><path d="M163.492 191.75l3.06 10.28" stroke-width="1.2" stroke="#000" stroke-miterlimit="10" fill="none"/><path d="M160.434 181.473L150 178.98" stroke-width="1.2" stroke="#00f" stroke-miterlimit="10" fill="none"/><path d="M150 178.98l-10.434-2.492" stroke-width="1.2" stroke="#000" stroke-miterlimit="10" fill="none"/><path d="M157.434 175.973h7v11h-7zm0 0" fill="#fff"/><use xlink:href="#a" x="157.434" y="184.636" fill="#00f"/><path d="M139.566 176.488l-6.117-20.558M134.117 175.87l-4.89-16.444M124.82 192.066l14.746-15.578M133.45 155.93l-20.864-4.98M112.586 150.95L97.84 166.522M114.777 155.977l-11.797 12.46M97.84 166.523l-10.43-2.488" stroke-width="1.2" stroke="#000" stroke-miterlimit="10" fill="none"/><path d="M87.41 164.035l-10.433-2.492" stroke-width="1.2" stroke="#00f" stroke-miterlimit="10" fill="none"/><path d="M97.84 166.523l6.117 20.563" stroke-width="1.2" stroke="#000" stroke-miterlimit="10" fill="none"/><path d="M76.977 161.543l-3.06-10.28" stroke-width="1.2" stroke="#00f" stroke-miterlimit="10" fill="none"/><path d="M73.918 151.262l-3.06-10.278M62.23 177.12l7.375-7.788" stroke-width="1.2" stroke="#000" stroke-miterlimit="10" fill="none"/><path d="M69.605 169.332l7.372-7.79" stroke-width="1.2" stroke="#00f" stroke-miterlimit="10" fill="none"/><path d="M73.977 156.043h7v11h-7zm0 0" fill="#fff"/><use xlink:href="#a" x="73.977" y="164.706" fill="#00f"/><path d="M70.86 140.984L49.995 136M49.996 136L35.25 151.578M35.25 151.578l6.117 20.56M41.367 172.137l20.863 4.984M59.813 177.84l3.058 10.28" stroke-width="1.2" stroke="#000" stroke-miterlimit="10" fill="none"/><path d="M62.87 188.12l3.06 10.278" stroke-width="1.2" stroke="#f00" stroke-miterlimit="10" fill="none"/><path d="M64.648 176.402l3.06 10.278" stroke-width="1.2" stroke="#000" stroke-miterlimit="10" fill="none"/><path d="M67.707 186.68l3.06 10.28" stroke-width="1.2" stroke="#f00" stroke-miterlimit="10" fill="none"/><path d="M64.348 192.18h8v11h-8zm0 0" fill="#fff"/><use xlink:href="#b" x="64.348" y="200.843" fill="#f00"/><path d="M103.957 187.086l20.863 4.98M107.22 182.672l16.686 3.988" stroke-width="1.2" stroke="#000" stroke-miterlimit="10" fill="none"/><path d="M165.063 139.832h8v11h-8zm0 0" fill="#fff"/><use xlink:href="#b" x="165.063" y="148.495" fill="#f00"/><path d="M258.633 185.82l6.117 20.56M254.406 189.316l4.895 16.45" stroke-width="1.2" stroke="#000" stroke-miterlimit="10" fill="none"/></g></svg>
